theme/icons/components.svg

<svg fill="none" height="24" viewBox="0 0 24 24" width="24" xmlns="http://www.w3.org/2000/svg"><g clip-rule="evenodd" fill="#f4f4f7" fill-rule="evenodd"><path d="m7.7572 6.3431 4.2426-4.24264 4.2427 4.24264-4.2427 4.2426zm2.8284 0 1.4142-1.41421 1.4143 1.41421-1.4143 1.41422z"/><path d="m2.10046 11.9999 4.24264-4.24264 4.2426 4.24264-4.2426 4.2426zm2.82843 0 1.41421-1.4142 1.41422 1.4142-1.41422 1.4142z"/><path d="m13.4142 11.9999 4.2426 4.2426 4.2427-4.2426-4.2427-4.24264zm4.2426-1.4142-1.4142 1.4142 1.4142 1.4142 1.4142-1.4142z"/><path d="m7.7572 17.6569 4.2426-4.2427 4.2427 4.2427-4.2427 4.2426zm2.8284 0 1.4142-1.4142 1.4143 1.4142-1.4143 1.4142z"/></g></svg>

<svg fill="none" height="24" width="24" xmlns="http://www.w3.org/2000/svg">
    <path d="M7.757 6.343 12 2.1l4.243 4.243L12 10.586zm2.829 0L12 4.93l1.414 1.414L12 7.757zM2.1 12l4.243-4.243L10.586 12l-4.243 4.243zm2.829 0 1.414-1.414L7.757 12l-1.414 1.414zm8.485 0 4.243 4.243L21.9 12l-4.243-4.243zm4.243-1.414L16.243 12l1.414 1.414L19.07 12zm-9.9 7.071L12 13.414l4.243 4.243L12 21.9zm2.829 0L12 16.243l1.414 1.414L12 19.07z" clip-rule="evenodd" fill="#f4f4f7" fill-rule="evenodd"/>
</svg>
